X:1
T:Regina Caeli
T:Regina Caeli
T:Francesca Caccini
T:(Mottetto)
T:Source : Primo libro delle Musische a 1 e 2 voci---Firenze---Z.Pignoni---1618. Editor : André Vierendeels (13/06/15).
T:Notes : Original clefs : C1, F4 Editorial accidentals above the staff Figures in BC are notated in original print 
C:Fr.Caccini
%%score 1 2
L:1/8
Q:1/4=70
M:4/4
K:F
V:1 treble nm="Soprano" snm="S"
V:2 bass nm="BC" snm="BC"
V:1
 z4 c4 | c6 c2 | d6 c2 | B4 z2 _e2 | _e/d/e/f/ e/d/c/4=B/4c/4A/4 B/G/A/B/ c/B/B/A/4B/4 | c8 | %6
w: Re-|gi- na|Cae- *|li, lae-|ta- * * * * * * * * * * * * * * * * * *|re,|
[M:3/4] A6 | B2 c4 | d4 z c | BA BG AB | c6 | B2 A4 | G6- | F2 GA Bc | d3 d c2- | c4 B2 | B6- | %17
w: Al-|le- lu-|ia a|_ _ _ _ _ _|Al-|le lu-|ia,|_ _ _ _ _|Al- le- lu-||ia,|
 B6 |[M:4/4] d6 A2 | A2 AA B4 | B2 c2 dc/B/ A/G/A/E/ | %21
w: _|Qui- a|quem me- ru- i-|sti por- ta- * * * * * *|
 F/D/4E/4F/G/ A/E/F/4G/4A/4=B/4 ^c/A/B/c/ d/c/c/B/4c/4 | d8 |[M:3/4] B6 | B2 c4 | d4 d2- | dc B4 | %27
w: |re,|Al-|le- lu-|ia, Al-|* le- lu-|
 A6 | D2 EF GA | B3 B A2- | A4 G2 | G6- | G6 |[M:4/4] B2 c2 d>_e c/c/d/e/ | c8 | c2 d2 _e>f de/f/ | %36
w: ia,|_ _ _ _ _|Al- le- lu-||ia,|_|re- sur- re- * * * * *|xit,|re- sur- re- * * * *|
 d4 d3 B | B>c d2 dc/B/ A>B | ^F4- F>G F/F/E/F/ | G8 |[M:3/4] G6 | G2 A4 | B4 z A | BG AB AB | c6 | %45
w: xit sic- ut|di- * * * * * * *||xit,|Al-|le- lu-|ia a|_ _ _ _ _ _|Al-|
 c2 B4 | A6 | E2 FG AB | A3 A G2- | G4 F2 | F6- | F6 |[M:4/4] z2 c4 G2 | z2 c4 B>A | A6 G2 | %55
w: le- lu-|ia,|_ _ _ _ _|Al- le- lu-||ia,|_|O- ra,|O- ra pro|no- bis|
 F4- F z/ E/ D/E/F/G/4A/4 | B/F/G/A/ B/c/d/e/ f/c/d/_e/ d/c/B/4A/4G/4F/4 | G/A/G GF/G/ A4 | %58
w: De- * * * * * * *||* * * * * * um,|
[M:3/4] c6 | B2 A4 | G6 | F2 GE FG | A6 | B2 c4 | d6- | d2 cB AG | A4 GA | FG AB cd | _e3 e d2- | %69
w: Al-|le- lu-|ia,|_ _ _ _ _|Al-|le- lu-|ia,|_ _ _ _ _|||Al- le- lu-|
 d4 c2 | c6- | c6 |[M:4/4] c6 B/A/G | A>B A>B c/G/G A/F/F | G4 G3 F | F8 |] %76
w: |ia,|_|Al- le- * *|lu- * * * * * * * * *||ia.|
V:2
 z4 F,4 | E,4 F,4 |"^6" D,2 C,2 B,,4 | _E,4 E,4 | C,4 G,3 F, | E,8 |[M:3/4] F,6 |"^6" G,2 A,4 | %8
 B,4 A,2- | A,2 G,4 | F,4 G,2- |"^-natural" G,2 D,4 | _E,6- | E,2 C,4 |"^11" B,,4 F,,2- | %15
"^10" F,,2 F,,4 | B,,6- | B,,6 |[M:4/4] B,,2 C,2 D,4 | ^F,4 G,4 |"^-natural" G,2 F,E, D,4 | %21
 D,4 A,3 G, | ^F,8 |[M:3/4] G,4 F,2- | F,2 _E,4 |"^-natural" D,6 |"^6" A,,2 B,,4 | F,,4 D,2- | %28
 D,6 | G,,4 D,2- |"^4""^3#" D,6 |"^b" G,,6- | G,,6 |[M:4/4] G,,2 F,,2 B,,4 | F,,8 | %35
"^b""^#" C,2 G,,2 C,4 |"^#" G,,4 G,,4 |"^b" B,,4 C,4 | D,6 C,2 | =B,,8 |[M:3/4] C,4 E,2- | %41
 E,2 F,4 | G,4 E,2- | E,2 F,4 |"^6" C,4 A,,2- | A,,2 B,,4 | F,,6- | F,,2 F,,4 | %48
"^6""^11" A,,4 C,2- |"^10" C,2 C,4 | F,,6- | F,,6 |[M:4/4] F,4 E,4 | E,4 G,4 | %54
"^-natural""^6" D,4 A,4 | A,4 B,4 | B,4 B,4 | B,4 A,4 |[M:3/4]"^#""^-natural" A,4 E,2- | E,2 F,4 | %60
 C,6- | C,2 E,4 | F,6 |"^6" G,2 A,4 | B,6- |"^6" B,2 G,4 | F,6- |"^-natural" F,2 D,4 | %68
"^11" C,4 G,,2- |"^10" G,,2 G,,4 | C,6- | C,6 |[M:4/4] C,2 D,2 E,4 |"^6" F,,2 G,,2 A,,4 | %74
"^11""^10" C,4 C,4 | F,,8 |] %76

